dhis-2/dhis-support/dhis-support-system/src/main/resources/SVGs/contraceptive_injection_negative.svg

<svg width="48" height="48" viewBox="0 0 48 48" fill="none" xmlns="http://www.w3.org/2000/svg">
<path fill-rule="evenodd" clip-rule="evenodd" d="M0 0V47.9994H47.9994V0H0ZM24.0037 4.37295H24.0057C27.6157 4.37345 30.5726 4.90694 30.6926 5.58393H30.7006V5.63083V9.24988V9.25378H30.6986C30.6646 9.73498 27.6777 10.1249 24.0057 10.1249C20.3327 10.1249 17.3488 9.73508 17.3138 9.25378H17.3108V9.24988V5.63083V5.58393H17.3218C17.4418 4.90774 20.3947 4.37375 24.0037 4.37295ZM26.9917 4.82804C27.1297 4.90414 27.1997 4.98554 27.2007 5.06634C27.2007 5.44083 25.7297 5.74203 23.9157 5.74213C22.1017 5.74213 20.6307 5.44063 20.6307 5.06634C20.6317 4.99104 20.6937 4.91234 20.8137 4.84764C19.2528 4.97284 18.3188 5.18213 18.3158 5.40613C18.3168 5.78003 20.8617 6.08192 24.0037 6.08192C27.1457 6.08192 29.6946 5.78043 29.6946 5.40613C29.6926 5.17133 28.6696 4.95044 26.9917 4.82804ZM21.8537 6.91201V9.28898H22.1737V6.91201H21.8537ZM22.5157 6.91201V9.28898H22.8357V6.91201H22.5157ZM23.1777 6.91201V9.28898H23.4977V6.91201H23.1777ZM23.8397 6.91201V9.28898H24.1597V6.91201H23.8397ZM24.5017 6.91201V9.28898H24.8217V6.91201H24.5017ZM25.1637 6.91201V9.28898H25.4837V6.91201H25.1637ZM25.8257 6.91201V9.28898H26.1457V6.91201H25.8257ZM18.5428 10.0939L18.5448 10.0959C19.7578 10.3199 21.7467 10.4649 24.0037 10.4649C26.2067 10.4649 28.1586 10.3259 29.3786 10.1089C29.1976 10.5659 28.9816 10.9999 28.6146 11.3239L32.0976 12.7208C32.9966 13.0808 33.2126 13.6668 33.2636 14.0818V41.5075C33.1436 42.6835 29.0426 43.6265 24.0037 43.6265C18.9148 43.6265 14.7818 42.6665 14.7398 41.4745H14.7358V41.4625V31.8356V31.7496V28.8066V28.5366V27.9836V27.7637V26.4097V26.4077V26.3107V17.3048V14.7538V14.5488V13.9138C14.8048 13.5008 15.0418 12.9868 15.8108 12.6758L19.0548 11.2769C18.6098 10.7189 18.5478 10.3899 18.5428 10.0939ZM19.2728 10.7129L19.8788 11.4669L15.8298 13.2338C15.1108 13.5368 15.2498 14.4028 15.2638 14.6518C16.6148 15.4998 20.1957 16.0648 24.0567 16.0658C27.8137 16.0648 31.3296 15.4688 32.7536 14.6538V14.4798C32.7396 14.2178 32.9236 13.5778 31.8906 13.1878L27.7397 11.5309L28.3956 10.7599C25.8437 11.1099 21.6937 11.0419 19.2728 10.7129ZM15.2458 15.2208L15.2498 17.5958C16.6418 18.4258 20.1987 19.0158 24.0037 19.0178C27.8117 19.0158 31.3486 18.4718 32.7376 17.6408L32.7456 15.2398C31.3726 16.1068 27.7987 16.5838 23.9997 16.5838C20.1977 16.5828 16.6198 16.0828 15.2458 15.2208ZM23.9727 22.2397C23.3237 22.2417 22.6837 22.3527 22.0777 22.5617C21.4717 22.7717 20.9007 23.0807 20.3867 23.4797L28.6326 31.7536C29.0906 31.1686 29.4226 30.5206 29.6286 29.8456C29.8346 29.1706 29.9156 28.4686 29.8746 27.7727C29.8336 27.0777 29.6686 26.3897 29.3846 25.7437C29.0996 25.0977 28.6956 24.4947 28.1716 23.9687C27.6467 23.4437 27.0337 23.0277 26.3647 22.7357C25.6967 22.4447 24.9737 22.2767 24.2317 22.2477C24.1457 22.2457 24.0587 22.2417 23.9727 22.2417V22.2397ZM26.8177 24.2417V24.2457C27.2387 24.2487 27.5807 24.3377 27.6987 24.4607C27.8407 24.5497 27.9356 24.8317 27.9526 25.1947C27.9696 25.5587 27.9107 26.0027 27.7417 26.4177C27.5727 26.8317 27.2937 27.2167 26.8767 27.4587C26.4597 27.7007 25.9037 27.8017 25.1777 27.6477C25.1627 27.6887 25.1367 27.7027 25.1047 27.7027L24.3807 26.9917C24.3857 26.9237 24.4237 26.8757 24.4877 26.8397C24.4037 26.3297 24.4417 25.9117 24.5607 25.5717C24.6787 25.2327 24.8797 24.9707 25.1247 24.7727C25.6147 24.3777 26.2797 24.2387 26.8177 24.2417ZM19.3648 24.5057C18.9078 25.0907 18.5768 25.7367 18.3708 26.4117C18.1648 27.0867 18.0828 27.7887 18.1248 28.4836C18.1668 29.1786 18.3318 29.8676 18.6168 30.5136C18.9018 31.1586 19.3058 31.7616 19.8298 32.2886C20.3547 32.8146 20.9587 33.2206 21.6037 33.5076C22.2477 33.7946 22.9357 33.9616 23.6307 34.0056C24.3257 34.0496 25.0277 33.9696 25.7027 33.7656C26.3787 33.5616 27.0267 33.2326 27.6127 32.7766L19.3648 24.5057ZM22.3257 28.1326L23.0307 28.8066C23.2237 29.5546 23.1787 30.0156 22.9937 30.3086C22.8087 30.6006 22.4847 30.7246 22.1167 30.7966C21.3987 30.7946 20.9987 30.8336 20.7517 30.9936C20.5047 31.1536 20.4097 31.4346 20.3047 31.9116C20.2967 31.5766 20.2457 31.1816 20.4487 30.8726C20.6517 30.5636 21.1087 30.3406 22.1167 30.3476C22.3417 30.2976 22.4267 30.1566 22.4377 29.9666C22.4477 29.7766 22.3847 29.5376 22.3137 29.2946C22.1727 28.8086 22.0007 28.3036 22.3257 28.1326ZM15.2498 35.4786V40.6475C16.6458 39.8185 20.1097 39.1665 23.9117 39.1655C27.7107 39.1655 30.9976 39.8125 32.7416 40.6475L32.7436 35.4786C31.3476 36.3075 27.8717 37.4205 24.0697 37.4215C20.2587 37.4195 16.6338 36.3105 15.2498 35.4786Z" fill="#333333"/>
</svg>

<?xml version="1.0" encoding="UTF-8" standalone="no"?>
<!-- Created with Inkscape (http://www.inkscape.org/) -->
<svg id="svg8" xmlns:rdf="http://www.w3.org/1999/02/22-rdf-syntax-ns#" xmlns="http://www.w3.org/2000/svg" xmlns:osb="http://www.openswatchbook.org/uri/2009/osb" height="48" width="48" version="1.1" xmlns:cc="http://creativecommons.org/ns#" viewBox="0 0 12.7 12.7" xmlns:dc="http://purl.org/dc/elements/1.1/">
 <title id="title4753">UIO-icon</title>
 <metadata id="metadata5">
  <rdf:RDF>
   <cc:Work rdf:about="">
    <dc:format>image/svg+xml</dc:format>
    <dc:type rdf:resource="http://purl.org/dc/dcmitype/StillImage"/>
    <dc:title>UIO-icon</dc:title>
    <dc:creator>
     <cc:Agent>
      <dc:title>Joaquín Urbano</dc:title>
     </cc:Agent>
    </dc:creator>
    <dc:rights>
     <cc:Agent>
      <dc:title>GPL</dc:title>
     </cc:Agent>
    </dc:rights>
   </cc:Work>
  </rdf:RDF>
 </metadata>
 <g id="layer1" transform="translate(0,-284.3)">
  <path id="rect3353" d="m0 0v48h48v-48h-48zm24.004 4.373h0.002c3.61 0.0005 6.567 0.534 6.687 1.211h0.008v0.0469 3.6191 0.0039h-0.002c-0.034 0.4812-3.021 0.8711-6.693 0.8711-3.673 0-6.657-0.3898-6.692-0.8711h-0.003v-0.0039-3.6191-0.0469h0.011c0.12-0.6762 3.073-1.2102 6.682-1.211zm2.988 0.4551c0.138 0.0761 0.208 0.1575 0.209 0.2383 0 0.3745-1.471 0.6757-3.285 0.6758-1.814 0-3.285-0.3015-3.285-0.6758 0.001-0.0753 0.063-0.154 0.183-0.2187-1.561 0.1252-2.495 0.3345-2.498 0.5585 0.001 0.3739 2.546 0.6758 5.688 0.6758s5.691-0.3015 5.691-0.6758c-0.002-0.2348-1.025-0.4557-2.703-0.5781zm-5.138 2.084v2.377h0.32v-2.377h-0.32zm0.662 0v2.377h0.32v-2.377h-0.32zm0.662 0v2.377h0.32v-2.377h-0.32zm0.662 0v2.377h0.32v-2.377h-0.32zm0.662 0v2.377h0.32v-2.377h-0.32zm0.662 0v2.377h0.32v-2.377h-0.32zm0.662 0v2.377h0.32v-2.377h-0.32zm-7.283 3.1819l0.002 0.002c1.213 0.224 3.202 0.369 5.459 0.369 2.203 0 4.155-0.139 5.375-0.356-0.181 0.457-0.397 0.891-0.764 1.215l3.483 1.397c0.899 0.36 1.115 0.946 1.166 1.361v27.426c-0.12 1.176-4.221 2.119-9.26 2.119-5.089 0-9.222-0.96-9.264-2.152h-0.004v-0.012-9.627-0.086-2.943-0.27-0.553-0.22-1.354-0.002-0.097-9.006-2.551-0.205-0.635c0.069-0.413 0.306-0.927 1.075-1.238l3.244-1.399c-0.445-0.558-0.507-0.887-0.512-1.183zm0.73 0.619l0.606 0.754-4.049 1.767c-0.719 0.303-0.58 1.169-0.566 1.418 1.351 0.848 4.932 1.413 8.793 1.414 3.757-0.001 7.273-0.597 8.697-1.412v-0.174c-0.014-0.262 0.17-0.902-0.863-1.292l-4.151-1.657 0.656-0.771c-2.552 0.35-6.702 0.282-9.123-0.047zm-4.027 4.508l0.004 2.375c1.392 0.83 4.949 1.42 8.754 1.422 3.808-0.002 7.345-0.546 8.734-1.377l0.008-2.401c-1.373 0.867-4.947 1.344-8.746 1.344-3.802-0.001-7.38-0.501-8.754-1.363zm8.727 7.019c-0.649 0.002-1.289 0.113-1.895 0.322-0.606 0.21-1.177 0.519-1.691 0.918l8.246 8.274c0.458-0.585 0.79-1.233 0.996-1.908s0.287-1.377 0.246-2.073c-0.041-0.695-0.206-1.383-0.49-2.029-0.285-0.646-0.689-1.249-1.213-1.775-0.525-0.525-1.138-0.941-1.807-1.233-0.668-0.291-1.391-0.459-2.133-0.488-0.086-0.002-0.173-0.006-0.259-0.006v-0.002zm2.845 2.002v0.004c0.421 0.003 0.763 0.092 0.881 0.215 0.142 0.089 0.237 0.371 0.254 0.734 0.017 0.364-0.042 0.808-0.211 1.223-0.169 0.414-0.448 0.799-0.865 1.041s-0.973 0.343-1.699 0.189c-0.015 0.041-0.041 0.055-0.073 0.055l-0.724-0.711c0.005-0.068 0.043-0.116 0.107-0.152-0.084-0.51-0.046-0.928 0.073-1.268 0.118-0.339 0.319-0.601 0.564-0.799 0.49-0.395 1.155-0.534 1.693-0.531zm-7.453 0.264c-0.457 0.585-0.788 1.231-0.994 1.906s-0.288 1.377-0.246 2.072 0.207 1.384 0.492 2.03c0.285 0.645 0.689 1.248 1.213 1.775 0.525 0.526 1.129 0.932 1.774 1.219 0.644 0.287 1.332 0.454 2.027 0.498s1.397-0.036 2.072-0.24c0.676-0.204 1.324-0.533 1.91-0.989l-8.248-8.271zm2.961 3.627l0.705 0.674c0.193 0.748 0.148 1.209-0.037 1.502-0.185 0.292-0.509 0.416-0.877 0.488-0.718-0.002-1.118 0.037-1.365 0.197s-0.342 0.441-0.447 0.918c-0.008-0.335-0.059-0.73 0.144-1.039s0.66-0.532 1.668-0.525c0.225-0.05 0.31-0.191 0.321-0.381 0.01-0.19-0.053-0.429-0.124-0.672-0.141-0.486-0.313-0.991 0.012-1.162zm-7.076 7.346v5.169c1.396-0.829 4.86-1.481 8.662-1.482 3.799 0 7.086 0.647 8.83 1.482l0.002-5.169c-1.396 0.829-4.872 1.942-8.674 1.943-3.811-0.002-7.436-1.111-8.82-1.943z" fill-rule="evenodd" transform="matrix(.26458 0 0 .26458 0 284.3)" fill="#333"/>
 </g>
</svg>
